Adwaita++/status/16/arch-updates.svg

<svg height="16" width="16" xmlns="http://www.w3.org/2000/svg">
  <path class="warning" d="m16 13.5a1.5 1.5 0 0 1 -1.5 1.5 1.5 1.5 0 0 1 -1.5-1.5 1.5 1.5 0 0 1 1.5-1.5 1.5 1.5 0 0 1 1.5 1.5z" fill="#3584e4"/>
  <path d="m8 1c-1.825 1.725-5 3-6 3.25 0 4.75 2.25 10 6 10.75 3.75-.75 6-6 6-10.75-1-.25-4.175-1.525-6-3.25zm0 3a1 1 0 0 1 1 1 1 1 0 0 1 -1 1 1 1 0 0 1 -1-1 1 1 0 0 1 1-1zm-2 3h1 2v5h-2v-4h-1z" fill="#474747"/>
</svg>

<svg xmlns="http://www.w3.org/2000/svg" width="16" height="16" version="1.1">
 <path class="warning" d="M 16,13.5 A 1.5,1.5 0 0 1 14.5,15 1.5,1.5 0 0 1 13,13.5 1.5,1.5 0 0 1 14.5,12 1.5,1.5 0 0 1 16,13.5 Z" style="fill:#3584e4"/>
 <path d="M 8 1 C 6.175 2.725 3 4 2 4.25 C 2 9 4.25 14.25 8 15 C 11.75 14.25 14 9 14 4.25 C 13 4 9.825 2.725 8 1 z M 8 4 A 1 1 0 0 1 9 5 A 1 1 0 0 1 8 6 A 1 1 0 0 1 7 5 A 1 1 0 0 1 8 4 z M 6 7 L 7 7 L 9 7 L 9 12 L 7 12 L 7 8 L 6 8 L 6 7 z" style="fill:#474747"/>
</svg>
